X:1
T: Moll in the Wadd [C]
L: 1/8
M: 6/8
S: Gow - 1st Repository
Z: Andrew Kuntz <aikuntz:aol.com> irtrad-l 2000-04-04
K:G
c \
| BAB G2F | E2F G2c | BAB G2B | AFD D2c \
| BAB G2F | E2F G2c | BcB {^c}d2B | AFD D2 :|
|: c \
| BGB {Bc}d2c | BGB {Bc}d2c | BGB d2B | ecA A2c \
| BGB {Bc}d2c | BGB def | {ef}g>fe dcB | AFD D2 :|
